icons/network-filled.svg

<?xml version="1.0" encoding="UTF-8" standalone="no"?>
<svg
   height="24"
   id="svg7384"
   version="1.1"
   width="24"
   sodipodi:docname="network-filled.svg"
   inkscape:version="1.1 (ce6663b3b7, 2021-05-25)"
   xmlns:inkscape="http://www.inkscape.org/namespaces/inkscape"
   xmlns:sodipodi="http://sodipodi.sourceforge.net/DTD/sodipodi-0.dtd"
   xmlns="http://www.w3.org/2000/svg"
   xmlns:svg="http://www.w3.org/2000/svg"
   xmlns:rdf="http://www.w3.org/1999/02/22-rdf-syntax-ns#"
   xmlns:cc="http://creativecommons.org/ns#"
   xmlns:dc="http://purl.org/dc/elements/1.1/">
  <sodipodi:namedview
     id="namedview22"
     pagecolor="#ffffff"
     bordercolor="#666666"
     borderopacity="1.0"
     inkscape:pageshadow="2"
     inkscape:pageopacity="0.0"
     inkscape:pagecheckerboard="0"
     showgrid="false"
     inkscape:zoom="4.9497287"
     inkscape:cx="-17.879768"
     inkscape:cy="-30.001645"
     inkscape:window-width="1920"
     inkscape:window-height="1016"
     inkscape:window-x="0"
     inkscape:window-y="27"
     inkscape:window-maximized="1"
     inkscape:current-layer="svg7384" />
  <metadata
     id="metadata20854">
    <rdf:RDF>
      <cc:Work
         rdf:about="">
        <dc:format>image/svg+xml</dc:format>
        <dc:type
           rdf:resource="http://purl.org/dc/dcmitype/StillImage" />
      </cc:Work>
    </rdf:RDF>
  </metadata>
  <defs
     id="defs7386">
    <linearGradient
       id="linearGradient5606"
       inkscape:swatch="solid">
      <stop
         id="stop5608"
         offset="0"
         style="stop-color:#000000;stop-opacity:1;" />
    </linearGradient>
    <linearGradient
       id="linearGradient4526"
       inkscape:swatch="solid">
      <stop
         id="stop4528"
         offset="0"
         style="stop-color:#ffffff;stop-opacity:1;" />
    </linearGradient>
    <linearGradient
       id="linearGradient3600-4"
       inkscape:swatch="gradient">
      <stop
         id="stop3602-7"
         offset="0"
         style="stop-color:#f4f4f4;stop-opacity:1" />
      <stop
         id="stop3604-6"
         offset="1"
         style="stop-color:#dbdbdb;stop-opacity:1" />
    </linearGradient>
  </defs>
  <path
     id="circle1314"
     style="fill:#808080;fill-opacity:1;stroke:none;stroke-width:1;stroke-linecap:square;stroke-linejoin:round;stroke-miterlimit:4;stroke-dasharray:none;stroke-dashoffset:0;stroke-opacity:1"
     d="m 12,2 a 10,10 0 0 0 -10,10 10,10 0 0 0 10,10 10,10 0 0 0 10,-10 10,10 0 0 0 -10,-10 z m -3.5791015,2.0288086 0.3027342,0.024414 c -0.1388748,1.670225 -0.1639139,3.2922851 -0.1025387,4.8657226 -0.1200375,-0.02425 -0.2443812,-0.039063 -0.3710937,-0.039063 -0.3186,10e-8 -0.6147063,0.089309 -0.8789063,0.2319336 -0.0617,-1.4916375 -0.028625,-3.0226202 0.078125,-4.5751952 0.3129625,-0.1894125 0.6374921,-0.359025 0.9716795,-0.507812 z m 7.7026365,0.258789 c 0.429337,0.2323375 0.838483,0.5002063 1.223145,0.8007813 -0.04515,0.7004625 -0.1136,1.3947656 -0.219727,2.0800781 -0.231462,-0.102825 -0.48439,-0.1635743 -0.751953,-0.1635743 -0.176025,2e-7 -0.343209,0.034316 -0.505371,0.080566 0.147787,-0.9186 0.232781,-1.8517766 0.253906,-2.7978511 z m -11.6406249,3.2543947 c 0.85515,0.5865373 1.7276493,1.1698311 2.6245118,1.7382812 -0.4415375,0.3432625 -0.7326219,0.8729765 -0.7324219,1.4697265 -8.75e-5,0.266813 0.060824,0.519062 0.1635742,0.749512 -1.1051125,0.463525 -2.1729797,1.015208 -3.1982422,1.677246 -0.056625,-0.389775 -0.086583,-0.78292 -0.090333,-1.176758 0.00375,-0.0741 0.00721,-0.148168 0.012212,-0.222168 0.968775,-0.587825 1.9582399,-1.113211 2.9858399,-1.538086 -0.804375,-0.5153374 -1.5769383,-1.0410202 -2.3364258,-1.5673827 0.162875,-0.3901 0.3538015,-0.767871 0.571289,-1.130371 z m 11.8920899,0.08789 a 1.25,1.2446897 0 0 1 1.25,1.2451172 1.25,1.2446897 0 0 1 -1.25,1.2451175 1.25,1.2446897 0 0 1 -1.25,-1.2451175 1.25,1.2446897 0 0 1 1.25,-1.2451172 z m 3.334961,0.2465821 c 0.209338,0.395075 0.38808,0.8056274 0.534668,1.2280274 -0.675938,0.0265 -1.365355,0.042816 -2.026368,0.080566 0.01725,-0.1012125 0.03178,-0.2041836 0.03174,-0.3100586 1.12e-4,-0.3385375 -0.09842,-0.6527469 -0.258789,-0.9277344 0.562875,-0.0335 1.147875,-0.045551 1.71875,-0.070801 z m -5.087891,0.3564452 c -0.07513,0.2012625 -0.122145,0.4159649 -0.122075,0.6420899 -1.25e-4,0.2198875 0.04594,0.428425 0.117188,0.625 -1.573825,0.1844875 -3.093244,0.4426469 -4.550782,0.8105465 -0.1109372,-0.4510621 -0.3835231,-0.8409075 -0.7568357,-1.0986325 1.7047127,-0.461225 3.4789127,-0.7702414 5.3124997,-0.9790039 z m -6.37207,1.2719727 a 1.25,1.2446897 0 0 1 1.25,1.2451177 1.25,1.2446897 0 0 1 -1.25,1.245117 1.25,1.2446897 0 0 1 -1.25,-1.245117 1.25,1.2446897 0 0 1 1.25,-1.2451177 z m 6.872559,0.7495117 c 0.3106,0.281013 0.712697,0.457457 1.154785,0.480957 -0.1847,0.569638 -0.390885,1.12825 -0.615234,1.679688 -0.321337,-0.256488 -0.723285,-0.415039 -1.16211,-0.415039 -0.0059,0 -0.01084,0.0024 -0.01709,0.0024 0.236287,-0.573515 0.449286,-1.156049 0.639649,-1.748049 z m -5.026856,0.783692 c 1.007163,0.548374 2.03732,1.051581 3.090821,1.503906 -0.301563,0.296637 -0.495493,0.694854 -0.541993,1.135254 -1.0806,-0.463275 -2.1321,-0.979632 -3.156738,-1.535645 0.3184625,-0.282387 0.538785,-0.667166 0.60791,-1.103515 z m -1.1132811,1.428222 c 0.156575,0.923988 0.3479343,1.824502 0.6152343,2.67334 -0.032875,-0.0025 -0.064281,-0.0097 -0.097656,-0.0097 -0.411025,0 -0.7902242,0.138337 -1.1010743,0.366212 -0.3014125,-0.954175 -0.5404827,-1.945221 -0.7080077,-2.973633 0.178175,0.05675 0.363282,0.09766 0.559082,0.09766 0.2598375,0 0.5062969,-0.05656 0.7324219,-0.153809 z m 5.5175781,0.158692 a 1.25,1.2446897 0 0 1 1.25,1.245117 1.25,1.2446897 0 0 1 -1.25,1.245118 1.25,1.2446897 0 0 1 -1.25,-1.245118 1.25,1.2446897 0 0 1 1.25,-1.245117 z m 1.85791,1.081543 c 1.310613,0.383987 2.651396,0.662447 4.020996,0.803221 -0.1257,0.411314 -0.281571,0.812786 -0.466309,1.201173 -1.321737,-0.155212 -2.612766,-0.420095 -3.869628,-0.786132 0.20865,-0.301175 0.332168,-0.664038 0.332031,-1.054688 0,-0.05583 -0.01212,-0.108949 -0.01709,-0.163574 z m -3.693847,0.53955 c 0.08956,0.431713 0.335695,0.803365 0.668945,1.071778 -0.62235,0.525837 -1.295729,0.970906 -1.994629,1.340331 -0.08113,-0.4307 -0.313032,-0.805576 -0.637207,-1.079101 0.701375,-0.363513 1.36194,-0.809708 1.962891,-1.333008 z m -3.164063,1.508789 a 1.25,1.2446897 0 0 1 1.25,1.245118 1.25,1.2446897 0 0 1 -1.25,1.245117 1.25,1.2446897 0 0 1 -1.25,-1.245117 1.25,1.2446897 0 0 1 1.25,-1.245118 z m -1.8408203,0.925294 c -0.01825,0.104275 -0.034218,0.210574 -0.03418,0.319824 -1.125e-4,0.3339 0.097606,0.64314 0.2539063,0.915527 -0.1696125,0.04047 -0.3460453,0.102462 -0.5126953,0.136719 -0.5078001,0.10435 -0.9847617,0.164726 -1.4526367,0.219726 -0.36895,-0.358662 -0.7055344,-0.749168 -1.0058594,-1.166992 0.6715375,-0.04005 1.4028563,-0.112988 2.2070313,-0.27832 0.1780375,-0.03661 0.3633585,-0.100863 0.5444338,-0.146484 z m 3.2714843,1.508789 c 0.262337,0.4653 1.168212,2.165007 1.491699,2.583007 l -0.988769,0.766601 c -0.357763,-0.462275 -1.299788,-2.199611 -1.5942385,-2.702636 0.4363875,-0.08111 0.8155965,-0.31836 1.0913085,-0.646972 z" />
  <g
     id="layer9"
     label="status"
     style="display:inline;stroke-width:0.8"
     transform="matrix(1.25,0,0,1.25,-1064.2503,235.75007)" />
  <g
     id="layer2"
     style="display:inline;stroke-width:0.8"
     transform="matrix(1.25,0,0,1.25,-763,-222.99993)" />
  <g
     id="layer4"
     style="display:inline;stroke-width:0.8"
     transform="matrix(1.25,0,0,1.25,-763,-222.99993)" />
  <g
     id="g1812"
     style="display:inline;stroke-width:0.8"
     transform="matrix(1.25,0,0,1.25,-763,-222.99993)" />
  <g
     id="g6217"
     style="display:inline;stroke-width:0.8"
     transform="matrix(1.25,0,0,1.25,-763,-222.99993)" />
  <g
     id="layer3"
     style="display:inline;stroke-width:0.8"
     transform="matrix(1.25,0,0,1.25,-763,-222.99993)" />
  <g
     id="layer1"
     style="display:inline;stroke-width:0.8"
     transform="matrix(1.25,0,0,1.25,-763,-222.99993)" />
</svg>

<?xml version="1.0" encoding="UTF-8" standalone="no"?>
<svg
   height="24"
   id="svg7384"
   version="1.1"
   width="24"
   sodipodi:docname="network-filled.svg"
   inkscape:version="1.1 (ce6663b3b7, 2021-05-25)"
   xmlns:inkscape="http://www.inkscape.org/namespaces/inkscape"
   xmlns:sodipodi="http://sodipodi.sourceforge.net/DTD/sodipodi-0.dtd"
   xmlns="http://www.w3.org/2000/svg"
   xmlns:svg="http://www.w3.org/2000/svg"
   xmlns:rdf="http://www.w3.org/1999/02/22-rdf-syntax-ns#"
   xmlns:cc="http://creativecommons.org/ns#"
   xmlns:dc="http://purl.org/dc/elements/1.1/">
  <sodipodi:namedview
     id="namedview22"
     pagecolor="#ffffff"
     bordercolor="#666666"
     borderopacity="1.0"
     inkscape:pageshadow="2"
     inkscape:pageopacity="0.0"
     inkscape:pagecheckerboard="0"
     showgrid="false"
     inkscape:zoom="27.999894"
     inkscape:cx="13.160764"
     inkscape:cy="11.089328"
     inkscape:window-width="1920"
     inkscape:window-height="1016"
     inkscape:window-x="0"
     inkscape:window-y="27"
     inkscape:window-maximized="1"
     inkscape:current-layer="svg7384" />
  <metadata
     id="metadata20854">
    <rdf:RDF>
      <cc:Work
         rdf:about="">
        <dc:format>image/svg+xml</dc:format>
        <dc:type
           rdf:resource="http://purl.org/dc/dcmitype/StillImage" />
      </cc:Work>
    </rdf:RDF>
  </metadata>
  <defs
     id="defs7386">
    <linearGradient
       id="linearGradient5606"
       inkscape:swatch="solid">
      <stop
         id="stop5608"
         offset="0"
         style="stop-color:#000000;stop-opacity:1;" />
    </linearGradient>
    <linearGradient
       id="linearGradient4526"
       inkscape:swatch="solid">
      <stop
         id="stop4528"
         offset="0"
         style="stop-color:#ffffff;stop-opacity:1;" />
    </linearGradient>
    <linearGradient
       id="linearGradient3600-4"
       inkscape:swatch="gradient">
      <stop
         id="stop3602-7"
         offset="0"
         style="stop-color:#f4f4f4;stop-opacity:1" />
      <stop
         id="stop3604-6"
         offset="1"
         style="stop-color:#dbdbdb;stop-opacity:1" />
    </linearGradient>
  </defs>
  <path
     id="path1572"
     style="fill:#808080;fill-rule:evenodd;stroke:none;stroke-width:2;stroke-linecap:square;stroke-linejoin:round"
     d="M 12 2 A 10 10 0 0 0 2 12 A 10 10 0 0 0 12 22 A 10 10 0 0 0 22 12 A 10 10 0 0 0 12 2 z M 8.5839844 4.0410156 L 8.7246094 4.0527344 C 8.5857304 5.7229594 8.5597237 7.3445317 8.6210938 8.9179688 C 8.5010558 8.8937188 8.376713 8.8789062 8.25 8.8789062 C 7.9314 8.8789073 7.6352937 8.9687031 7.3710938 9.1113281 C 7.3107248 7.6518941 7.3401132 6.1548597 7.4414062 4.6367188 A 8.6874997 8.6874997 0 0 1 8.5839844 4.0410156 z M 16.121094 4.3710938 A 8.6874997 8.6874997 0 0 1 17.339844 5.1738281 C 17.29469 5.8451591 17.228741 6.5106807 17.126953 7.1679688 C 16.895492 7.0651448 16.642562 7.0039062 16.375 7.0039062 C 16.198975 7.0039062 16.031303 7.0396875 15.869141 7.0859375 C 16.012606 6.1942535 16.096954 5.2887128 16.121094 4.3710938 z M 4.5488281 7.5878906 C 5.382868 8.1591236 6.2336409 8.7254769 7.1074219 9.2792969 C 6.6658839 9.6225589 6.3748 10.15325 6.375 10.75 C 6.374912 11.016813 6.4363125 11.26955 6.5390625 11.5 C 5.4561615 11.954209 4.4106033 12.49619 3.4042969 13.140625 A 8.6874997 8.6874997 0 0 1 3.3144531 12 A 8.6874997 8.6874997 0 0 1 3.3359375 11.736328 C 4.281652 11.166135 5.2459729 10.654555 6.2480469 10.240234 C 5.4694219 9.7413944 4.7203949 9.2320792 3.984375 8.7226562 A 8.6874997 8.6874997 0 0 1 4.5488281 7.5878906 z M 16.375 7.6289062 A 1.25 1.2446897 0 0 1 17.625 8.875 A 1.25 1.2446897 0 0 1 16.375 10.119141 A 1.25 1.2446897 0 0 1 15.125 8.875 A 1.25 1.2446897 0 0 1 16.375 7.6289062 z M 19.628906 7.8789062 A 8.6874997 8.6874997 0 0 1 20.173828 9.1074219 C 19.520536 9.1323619 18.856778 9.1491069 18.21875 9.1855469 C 18.236 9.0843339 18.250037 8.980875 18.25 8.875 C 18.250112 8.536462 18.152551 8.2222526 17.992188 7.9472656 C 18.528759 7.9153356 19.083525 7.9018762 19.628906 7.8789062 z M 14.621094 8.2324219 C 14.545969 8.4336849 14.499925 8.648875 14.5 8.875 C 14.499875 9.094888 14.545938 9.303425 14.617188 9.5 C 13.043363 9.684488 11.523944 9.9426459 10.066406 10.310547 C 9.9554692 9.8594839 9.6838589 9.4686625 9.3105469 9.2109375 C 11.015259 8.7497125 12.787506 8.4411849 14.621094 8.2324219 z M 8.25 9.5039062 A 1.25 1.2446897 0 0 1 9.5 10.75 A 1.25 1.2446897 0 0 1 8.25 11.994141 A 1.25 1.2446897 0 0 1 7 10.75 A 1.25 1.2446897 0 0 1 8.25 9.5039062 z M 15.123047 10.253906 C 15.433647 10.534919 15.835257 10.710875 16.277344 10.734375 C 16.092644 11.304013 15.886457 11.862625 15.662109 12.414062 C 15.340771 12.157574 14.938826 12 14.5 12 C 14.49416 12 14.488622 12.001903 14.482422 12.001953 C 14.71871 11.42844 14.932684 10.845906 15.123047 10.253906 z M 10.095703 11.037109 C 11.102866 11.585484 12.133998 12.088691 13.1875 12.541016 C 12.885937 12.837653 12.691031 13.237333 12.644531 13.677734 C 11.563931 13.214459 10.512918 12.696638 9.4882812 12.140625 C 9.8067442 11.858237 10.026583 11.473459 10.095703 11.037109 z M 8.9824219 12.466797 C 9.1389969 13.390785 9.3303562 14.291788 9.5976562 15.140625 C 9.5647762 15.138025 9.53337 15.128906 9.5 15.128906 C 9.088975 15.128906 8.7092875 15.268219 8.3984375 15.496094 C 8.0970255 14.541919 7.8589313 13.549896 7.6914062 12.521484 C 7.8695813 12.578244 8.0542 12.619141 8.25 12.619141 C 8.509838 12.619141 8.7562969 12.564047 8.9824219 12.466797 z M 14.5 12.625 A 1.25 1.2446897 0 0 1 15.75 13.869141 A 1.25 1.2446897 0 0 1 14.5 15.115234 A 1.25 1.2446897 0 0 1 13.25 13.869141 A 1.25 1.2446897 0 0 1 14.5 12.625 z M 16.357422 13.707031 C 17.64461 14.084156 18.960583 14.358842 20.304688 14.501953 A 8.6874997 8.6874997 0 0 1 19.839844 15.701172 C 18.543763 15.54482 17.276503 15.28307 16.042969 14.923828 C 16.251613 14.622653 16.375138 14.259791 16.375 13.869141 C 16.375 13.813316 16.362422 13.761651 16.357422 13.707031 z M 12.664062 14.246094 C 12.753625 14.677807 13.000734 15.049945 13.333984 15.318359 C 12.711634 15.844195 12.036791 16.288778 11.337891 16.658203 C 11.256766 16.227503 11.025347 15.85165 10.701172 15.578125 C 11.402547 15.214611 12.063111 14.769394 12.664062 14.246094 z M 9.5 15.753906 A 1.25 1.2446897 0 0 1 10.75 17 A 1.25 1.2446897 0 0 1 9.5 18.244141 A 1.25 1.2446897 0 0 1 8.25 17 A 1.25 1.2446897 0 0 1 9.5 15.753906 z M 7.6601562 16.679688 C 7.6419062 16.783962 7.624963 16.89075 7.625 17 C 7.6248881 17.3339 7.7226063 17.643629 7.8789062 17.916016 C 7.7092933 17.956485 7.5318845 18.018484 7.3652344 18.052734 C 6.8870644 18.150995 6.4377369 18.209209 5.9960938 18.261719 A 8.6874997 8.6874997 0 0 1 4.9707031 17.099609 C 5.6251272 17.058774 6.3358434 16.986414 7.1152344 16.826172 C 7.2932725 16.789563 7.4790813 16.725317 7.6601562 16.679688 z M 10.929688 18.189453 C 11.176729 18.62762 11.983314 20.134356 12.347656 20.660156 A 8.6874997 8.6874997 0 0 1 12 20.6875 A 8.6874997 8.6874997 0 0 1 10.84375 20.595703 C 10.455027 19.930684 10.023866 19.150313 9.8398438 18.835938 C 10.276231 18.754826 10.653975 18.518065 10.929688 18.189453 z " />
</svg>
